X:1087
T:Goodnight and Joy Be With You
C:Trad
M:4/4
L:1/8
E:12
Z:Rant
K:D
|:fe|"D"d2 d2 A3 d|"G"B2 B2 b3 a|"D"faba faba|"A"f2 e2 e2 fe|\
"D"d2 d2 A3 d|"G"B2 B2 b3 a|"A"faba faba|"D"f2 d2 d2::\
f2|"Em"efed B2 dB|"D"ABde f2 ed|"Em"e3 f gfga|b2 e2 e2 f2|\
gfga b2 ag|"D"fefg a2 gf|"A"e2 g2 fgfe|"Bm"d2 B2 B2:|**

